src/images_karasa_jaga_svg/cmd/32/hideallnotes.svg

<svg height="32" viewBox="0 0 8.4666665 8.466667" width="32" xmlns="http://www.w3.org/2000/svg" xmlns:xlink="http://www.w3.org/1999/xlink"><radialGradient id="a" cx="11.026738" cy="7.9995" gradientTransform="matrix(.5501517 .00170856 -.0015724 .6011785 7.426983 48.544705)" gradientUnits="userSpaceOnUse" r="156.98399"><stop offset=".0765" stop-color="#ffce05"/><stop offset=".18870001" stop-color="#f9d940"/><stop offset=".3467" stop-color="#fde446"/><stop offset=".4294" stop-color="#ffeb55"/><stop offset=".6882" stop-color="#ffeb55"/><stop offset=".7281" stop-color="#fee951"/><stop offset=".7641" stop-color="#fde446"/><stop offset=".7987" stop-color="#fadb34"/><stop offset=".8322" stop-color="#f7cf1a"/><stop offset=".8588" stop-color="#f3c300"/><stop offset=".9208" stop-color="#fbd400"/><stop offset=".9706" stop-color="#fd0"/></radialGradient><linearGradient id="b" gradientTransform="matrix(.5520917 0 0 .8167341 7.874148 48.018828)" gradientUnits="userSpaceOnUse" x1="-19.342056" x2="152.20572" y1="-36.226715" y2="93.202377"><stop offset="0" stop-color="#fff"/><stop offset=".25" stop-color="#fff" stop-opacity=".449275"/><stop offset=".45480227" stop-color="#fff" stop-opacity=".698039"/><stop offset=".5" stop-color="#fff" stop-opacity=".942029"/><stop offset="1" stop-color="#fff" stop-opacity="0"/></linearGradient><g transform="matrix(.25 0 0 .25 0 -65.78333)"><g transform="matrix(.21421356 -.18228464 .18715441 .19942886 -7.696827 268.40096)"><g fill="none"><path d="m75.499304 104.76716-1.139351 14.92505-14.768513 2.35887-47.955076-.14893.188173-69.512388 63.811827-.02613z" opacity=".15"/><path d="m75.499304 104.76716-1.139351 14.92505-14.768513 2.35887-47.955076-.14893.188173-69.512388 63.811827-.02613z" opacity=".505556" stroke="#9b7600" stroke-width="5.818182"/><path d="m75.499304 104.76716-1.139351 14.92505-14.768513 2.35887-47.955076-.14893.188173-69.512388 63.811827-.02613z" opacity=".505556" stroke="#e3ad00" stroke-width="2.909091"/></g><path d="m75.499304 104.76716-1.139351 14.92505-14.768513 2.35887-47.955076-.14893.188173-69.512388 63.811827-.02613z" fill="url(#a)"/><g fill="url(#b)"><path d="m11.766345 52.314266h63.971756v14.911496h-63.971756z" opacity=".868852" transform="matrix(.9999912 .00420424 -.00193197 .9999981 0 0)"/><path d="m11.766345 52.314266h63.971756v14.911496h-63.971756z" opacity=".868852" transform="matrix(.9999912 .00420424 -.00193197 .9999981 0 0)"/></g></g><g transform="matrix(.2850849 0 0 .26951884 -1.511384 262.3391)"><g fill="none"><path d="m75.499304 104.76716-1.139351 14.92505-14.768513 2.35887-47.955076-.14893.188173-69.512388 63.811827-.02613z" opacity=".1"/><path d="m75.499304 104.76716-1.139351 14.92505-14.768513 2.35887-47.955076-.14893.188173-69.512388 63.811827-.02613z" opacity=".505556" stroke="#8f6d00" stroke-width="5.818182"/><path d="m75.499304 104.76716-1.139351 14.92505-14.768513 2.35887-47.955076-.14893.188173-69.512388 63.811827-.02613z" opacity=".505556" stroke="#e3ad00" stroke-width="2.909091"/></g><path d="m75.499304 104.76716-1.139351 14.92505-14.768513 2.35887-47.955076-.14893.188173-69.512388 63.811827-.02613z" fill="url(#a)"/><g fill="url(#b)"><path d="m11.766345 52.314266h63.971756v14.911496h-63.971756z" opacity=".868852" transform="matrix(.9999912 .00420424 -.00193197 .9999981 0 0)"/><path d="m11.766345 52.314266h63.971756v14.911496h-63.971756z" opacity=".868852" transform="matrix(.9999912 .00420424 -.00193197 .9999981 0 0)"/></g></g><path d="m69.261719 3.4472656a3.8219776 3.8219776 0 0 0 -2.554688.9101563l-47.287109 40.2753901-.0078.0059a3.8219776 3.8219776 0 0 0 -.0039.0039 3.8219776 3.8219776 0 0 0 -.251953.228516l.115234-.115235-2.113281 1.785157h-4.144531l-6.1406251-.02539a3.8219776 3.8219776 0 0 0 -3.8378907 3.814453l-.03125 15.189453a3.8219776 3.8219776 0 0 0 .15625 1.078125l-.15625 54.564449a3.8219776 3.8219776 0 0 0 3.8105469 3.83398l31.7246089.0937 47.189454-105.697257-.523438-.5625-2.603516 2.603516a3.8219776 3.8219776 0 0 0 .0918-5.3125l-10.523459-11.2597509a3.8219776 3.8219776 0 0 0 -2.71875-1.2128906h.957031a3.8219776 3.8219776 0 0 0 -1.146484-.2011719z" fill="#525252" fill-opacity=".603922" transform="matrix(.26458333 0 0 .26458333 0 263.13332)"/><path d="m9.3296253 296.26293c.7937497.39688.618935.2667 1.4491967.68157.821267-1.77747 12.91617-29.18454 13.688753-30.85883-.794279-.39687-.583141-.3081-1.413404-.72297-.820737 1.77747-12.951963 29.22648-13.7245457 30.90023z" fill="#555" stroke-width=".529167"/></g></svg>

<?xml version="1.0" encoding="UTF-8" standalone="no"?>
<!-- Created with Inkscape (http://www.inkscape.org/) -->

<svg
   xmlns:dc="http://purl.org/dc/elements/1.1/"
   xmlns:cc="http://creativecommons.org/ns#"
   xmlns:rdf="http://www.w3.org/1999/02/22-rdf-syntax-ns#"
   xmlns:svg="http://www.w3.org/2000/svg"
   xmlns="http://www.w3.org/2000/svg"
   xmlns:xlink="http://www.w3.org/1999/xlink"
   xmlns:sodipodi="http://sodipodi.sourceforge.net/DTD/sodipodi-0.dtd"
   xmlns:inkscape="http://www.inkscape.org/namespaces/inkscape"
   width="128"
   height="128"
   viewBox="0 0 33.866666 33.866668"
   version="1.1"
   id="svg8"
   inkscape:version="0.92.3 (unknown)"
   sodipodi:docname="hideallnotes.svg"
   inkscape:export-filename="/home/rizmut/Dokumen/Rizmut/Github/libreoffice-style-karasa-jaga/build/images_karasa_jaga/cmd/32/hideallnotes.png"
   inkscape:export-xdpi="24"
   inkscape:export-ydpi="24">
  <defs
     id="defs2">
    <radialGradient
       inkscape:collect="always"
       xlink:href="#XMLID_2_"
       id="radialGradient2399"
       gradientUnits="userSpaceOnUse"
       gradientTransform="matrix(0.5501517,0.00170856,-0.0015724,0.6011785,7.4269827,48.544705)"
       cx="11.026738"
       cy="7.9994998"
       fx="11.026738"
       fy="7.9994998"
       r="156.98399" />
    <radialGradient
       id="XMLID_2_"
       cx="11.026738"
       cy="7.9994998"
       r="156.98399"
       gradientUnits="userSpaceOnUse"
       fx="11.026738"
       fy="7.9994998">
      <stop
         offset="0.0765"
         style="stop-color:#ffce05;stop-opacity:1;"
         id="stop12" />
      <stop
         offset="0.18870001"
         style="stop-color:#f9d940;stop-opacity:1;"
         id="stop14" />
      <stop
         offset="0.3467"
         style="stop-color:#FDE446"
         id="stop16" />
      <stop
         offset="0.4294"
         style="stop-color:#FFEB55"
         id="stop18" />
      <stop
         offset="0.6882"
         style="stop-color:#FFEB55"
         id="stop20" />
      <stop
         offset="0.7281"
         style="stop-color:#FEE951"
         id="stop22" />
      <stop
         offset="0.7641"
         style="stop-color:#FDE446"
         id="stop24" />
      <stop
         offset="0.7987"
         style="stop-color:#FADB34"
         id="stop26" />
      <stop
         offset="0.8322"
         style="stop-color:#F7CF1A"
         id="stop28" />
      <stop
         offset="0.8588"
         style="stop-color:#F3C300"
         id="stop30" />
      <stop
         offset="0.9208"
         style="stop-color:#FBD400"
         id="stop32" />
      <stop
         offset="0.9706"
         style="stop-color:#FFDD00"
         id="stop34" />
    </radialGradient>
    <linearGradient
       inkscape:collect="always"
       xlink:href="#linearGradient2221"
       id="linearGradient2396"
       gradientUnits="userSpaceOnUse"
       gradientTransform="matrix(0.5520917,0,0,0.8167341,7.8741477,48.018828)"
       x1="-19.342056"
       y1="-36.226715"
       x2="152.20572"
       y2="93.202377" />
    <linearGradient
       id="linearGradient2221">
      <stop
         style="stop-color:#ffffff;stop-opacity:1;"
         offset="0"
         id="stop2223" />
      <stop
         id="stop2233"
         offset="0.25"
         style="stop-color:#ffffff;stop-opacity:0.44927537;" />
      <stop
         style="stop-color:#ffffff;stop-opacity:0.69803922;"
         offset="0.45480227"
         id="stop2235" />
      <stop
         id="stop2231"
         offset="0.5"
         style="stop-color:#ffffff;stop-opacity:0.942029;" />
      <stop
         style="stop-color:#ffffff;stop-opacity:0;"
         offset="1"
         id="stop2225" />
    </linearGradient>
    <radialGradient
       inkscape:collect="always"
       xlink:href="#XMLID_2_"
       id="radialGradient3416"
       gradientUnits="userSpaceOnUse"
       gradientTransform="matrix(0.5501517,0.00170856,-0.0015724,0.6011785,7.4269827,48.544705)"
       cx="11.026738"
       cy="7.9994998"
       fx="11.026738"
       fy="7.9994998"
       r="156.98399" />
    <radialGradient
       id="radialGradient1228"
       cx="11.026738"
       cy="7.9994998"
       r="156.98399"
       gradientUnits="userSpaceOnUse"
       fx="11.026738"
       fy="7.9994998">
      <stop
         offset="0.0765"
         style="stop-color:#ffce05;stop-opacity:1;"
         id="stop1204" />
      <stop
         offset="0.18870001"
         style="stop-color:#f9d940;stop-opacity:1;"
         id="stop1206" />
      <stop
         offset="0.3467"
         style="stop-color:#FDE446"
         id="stop1208" />
      <stop
         offset="0.4294"
         style="stop-color:#FFEB55"
         id="stop1210" />
      <stop
         offset="0.6882"
         style="stop-color:#FFEB55"
         id="stop1212" />
      <stop
         offset="0.7281"
         style="stop-color:#FEE951"
         id="stop1214" />
      <stop
         offset="0.7641"
         style="stop-color:#FDE446"
         id="stop1216" />
      <stop
         offset="0.7987"
         style="stop-color:#FADB34"
         id="stop1218" />
      <stop
         offset="0.8322"
         style="stop-color:#F7CF1A"
         id="stop1220" />
      <stop
         offset="0.8588"
         style="stop-color:#F3C300"
         id="stop1222" />
      <stop
         offset="0.9208"
         style="stop-color:#FBD400"
         id="stop1224" />
      <stop
         offset="0.9706"
         style="stop-color:#FFDD00"
         id="stop1226" />
    </radialGradient>
    <linearGradient
       inkscape:collect="always"
       xlink:href="#linearGradient2221"
       id="linearGradient1966"
       gradientUnits="userSpaceOnUse"
       gradientTransform="matrix(0.5520917,0,0,0.8167341,7.8741477,48.018828)"
       x1="-19.342056"
       y1="-36.226715"
       x2="152.20572"
       y2="93.202377" />
    <linearGradient
       inkscape:collect="always"
       xlink:href="#linearGradient2221"
       id="linearGradient1968"
       gradientUnits="userSpaceOnUse"
       gradientTransform="matrix(0.5520917,0,0,0.8167341,7.8741477,48.018828)"
       x1="-19.342056"
       y1="-36.226715"
       x2="152.20572"
       y2="93.202377" />
    <linearGradient
       inkscape:collect="always"
       xlink:href="#linearGradient2221"
       id="linearGradient1970"
       gradientUnits="userSpaceOnUse"
       gradientTransform="matrix(0.5520917,0,0,0.8167341,7.8741477,48.018828)"
       x1="-19.342056"
       y1="-36.226715"
       x2="152.20572"
       y2="93.202377" />
    <radialGradient
       id="h"
       cx="84.903702"
       cy="-130.14005"
       gradientTransform="rotate(-45,342.93203,-200.14073)"
       gradientUnits="userSpaceOnUse"
       r="57.039597"
       xlink:href="#i" />
    <linearGradient
       id="i">
      <stop
         offset="0"
         stop-color="#3a0b02"
         id="stop40" />
      <stop
         offset="1"
         stop-color="#a21d07"
         stop-opacity=".382353"
         id="stop42" />
    </linearGradient>
    <radialGradient
       id="j"
       cx="2.7207029"
       cy="-66.273438"
       gradientTransform="rotate(-45,342.93203,-200.14073)"
       gradientUnits="userSpaceOnUse"
       r="57.039597"
       xlink:href="#i" />
    <radialGradient
       id="k"
       cx="51.991096"
       cy="-78.028419"
       gradientTransform="rotate(-45,342.93203,-200.14073)"
       gradientUnits="userSpaceOnUse"
       r="57.039597"
       xlink:href="#i" />
    <linearGradient
       id="d-2"
       gradientTransform="scale(1.0975951,0.9110828)"
       gradientUnits="userSpaceOnUse"
       x1="26.091133"
       x2="31.500689"
       y1="14.856744"
       y2="14.856744">
      <stop
         offset="0"
         stop-color="#fff"
         id="stop19" />
      <stop
         offset="1"
         stop-color="#fff"
         stop-opacity="0"
         id="stop21" />
    </linearGradient>
    <filter
       id="l"
       height="1.277481"
       width="1.279832"
       x="-0.139916"
       y="-0.138741">
      <feGaussianBlur
         stdDeviation=".28784801"
         id="feGaussianBlur47" />
    </filter>
    <filter
       id="filter938"
       height="1.277481"
       width="1.279832"
       x="-0.139916"
       y="-0.138741">
      <feGaussianBlur
         stdDeviation=".28784801"
         id="feGaussianBlur936" />
    </filter>
    <linearGradient
       id="e"
       gradientUnits="userSpaceOnUse"
       x1="304.88663"
       x2="345.62039"
       y1="385.86127"
       y2="384.62384">
      <stop
         offset="0"
         stop-color="#765c44"
         id="stop24-9" />
      <stop
         offset="1"
         stop-color="#765c44"
         stop-opacity="0"
         id="stop26-6" />
    </linearGradient>
    <filter
       id="filter945"
       height="1.277481"
       width="1.279832"
       x="-0.139916"
       y="-0.138741">
      <feGaussianBlur
         stdDeviation=".28784801"
         id="feGaussianBlur943" />
    </filter>
    <linearGradient
       id="f"
       gradientUnits="userSpaceOnUse"
       spreadMethod="reflect"
       x1="88.606247"
       x2="91.575104"
       y1="13.510336"
       y2="13.510336">
      <stop
         offset="0"
         stop-color="#ff8787"
         id="stop29-3" />
      <stop
         offset="1"
         stop-color="#ff8787"
         stop-opacity="0"
         id="stop31-1" />
    </linearGradient>
    <filter
       id="filter953"
       height="1.277481"
       width="1.279832"
       x="-0.139916"
       y="-0.138741">
      <feGaussianBlur
         stdDeviation=".28784801"
         id="feGaussianBlur951" />
    </filter>
    <linearGradient
       id="g"
       gradientUnits="userSpaceOnUse"
       spreadMethod="reflect"
       x1="31.606251"
       x2="34.575108"
       y1="13.510336"
       y2="13.510336">
      <stop
         offset="0"
         stop-color="#fff"
         id="stop34-2" />
      <stop
         offset="1"
         stop-color="#790000"
         stop-opacity="0"
         id="stop36" />
    </linearGradient>
    <filter
       id="filter960"
       height="1.277481"
       width="1.279832"
       x="-0.139916"
       y="-0.138741">
      <feGaussianBlur
         stdDeviation=".28784801"
         id="feGaussianBlur958" />
    </filter>
    <filter
       id="filter971"
       height="1.277481"
       width="1.279832"
       x="-0.139916"
       y="-0.138741">
      <feGaussianBlur
         stdDeviation=".28784801"
         id="feGaussianBlur969" />
    </filter>
    <radialGradient
       id="m"
       cx="50.424522"
       cy="-81.945961"
       gradientTransform="rotate(-45,342.93203,-200.14072)"
       gradientUnits="userSpaceOnUse"
       r="50.15279">
      <stop
         offset="0"
         stop-color="#db3424"
         id="stop50" />
      <stop
         offset="1"
         stop-color="#b32016"
         id="stop52" />
    </radialGradient>
    <linearGradient
       id="n"
       gradientTransform="rotate(-45,342.93203,-200.14073)"
       gradientUnits="userSpaceOnUse"
       x1="50.06789"
       x2="59.441998"
       y1="-154.40843"
       y2="-71.617722">
      <stop
         offset="0"
         stop-color="#fff"
         id="stop55" />
      <stop
         offset="1"
         stop-color="#fcf3f3"
         stop-opacity="0"
         id="stop57" />
    </linearGradient>
  </defs>
  <sodipodi:namedview
     id="base"
     pagecolor="#ffffff"
     bordercolor="#666666"
     borderopacity="1.0"
     inkscape:pageopacity="0.0"
     inkscape:pageshadow="2"
     inkscape:zoom="2.8"
     inkscape:cx="40.355441"
     inkscape:cy="56.633758"
     inkscape:document-units="mm"
     inkscape:current-layer="layer1"
     showgrid="false"
     units="px"
     inkscape:window-width="1366"
     inkscape:window-height="706"
     inkscape:window-x="0"
     inkscape:window-y="0"
     inkscape:window-maximized="1"
     inkscape:snap-global="false" />
  <metadata
     id="metadata5">
    <rdf:RDF>
      <cc:Work
         rdf:about="">
        <dc:format>image/svg+xml</dc:format>
        <dc:type
           rdf:resource="http://purl.org/dc/dcmitype/StillImage" />
        <dc:title></dc:title>
      </cc:Work>
    </rdf:RDF>
  </metadata>
  <g
     inkscape:label="Layer 1"
     inkscape:groupmode="layer"
     id="layer1"
     transform="translate(0,-263.13332)">
    <g
       id="g3400"
       transform="matrix(0.21421356,-0.18228464,0.18715441,0.19942886,-7.6968274,268.40096)">
      <path
         inkscape:connector-curvature="0"
         style="opacity:0.15;fill:none;stroke:none;stroke-width:8.72727299;stroke-miterlimit:4;stroke-dasharray:none;stroke-opacity:1"
         d="m 75.499304,104.76716 -1.139351,14.92505 -14.768513,2.35887 -47.955076,-0.14893 0.188173,-69.512388 63.811827,-0.02613 z"
         id="path3404"
         sodipodi:nodetypes="ccccccc" />
      <path
         inkscape:connector-curvature="0"
         sodipodi:nodetypes="ccccccc"
         id="path3406"
         d="m 75.499304,104.76716 -1.139351,14.92505 -14.768513,2.35887 -47.955076,-0.14893 0.188173,-69.512388 63.811827,-0.02613 z"
         style="opacity:0.50555558;fill:none;stroke:#9b7600;stroke-width:5.81818199;stroke-miterlimit:4;stroke-dasharray:none;stroke-opacity:1" />
      <path
         inkscape:connector-curvature="0"
         style="opacity:0.50555558;fill:none;stroke:#e3ad00;stroke-width:2.909091;stroke-miterlimit:4;stroke-dasharray:none;stroke-opacity:1"
         d="m 75.499304,104.76716 -1.139351,14.92505 -14.768513,2.35887 -47.955076,-0.14893 0.188173,-69.512388 63.811827,-0.02613 z"
         id="path3408"
         sodipodi:nodetypes="ccccccc" />
      <path
         inkscape:connector-curvature="0"
         sodipodi:nodetypes="ccccccc"
         id="path3410"
         d="m 75.499304,104.76716 -1.139351,14.92505 -14.768513,2.35887 -47.955076,-0.14893 0.188173,-69.512388 63.811827,-0.02613 z"
         style="fill:url(#radialGradient3416)" />
      <rect
         transform="matrix(0.9999912,0.00420424,-0.00193197,0.9999981,0,0)"
         y="52.314266"
         x="11.766345"
         height="14.911496"
         width="63.971756"
         id="rect3412"
         style="opacity:0.86885244;fill:url(#linearGradient1966);fill-opacity:1;fill-rule:nonzero;stroke:none;stroke-width:1;stroke-linecap:butt;stroke-linejoin:miter;stroke-miterlimit:4;stroke-dasharray:none;stroke-dashoffset:4;stroke-opacity:1" />
      <rect
         style="opacity:0.86885244;fill:url(#linearGradient1968);fill-opacity:1;fill-rule:nonzero;stroke:none;stroke-width:1;stroke-linecap:butt;stroke-linejoin:miter;stroke-miterlimit:4;stroke-dasharray:none;stroke-dashoffset:4;stroke-opacity:1"
         id="rect3414"
         width="63.971756"
         height="14.911496"
         x="11.766345"
         y="52.314266"
         transform="matrix(0.9999912,0.00420424,-0.00193197,0.9999981,0,0)" />
    </g>
    <g
       transform="matrix(0.2850849,0,0,0.26951884,-1.5113838,262.3391)"
       id="g3391">
      <path
         inkscape:connector-curvature="0"
         style="opacity:0.1;fill:none;stroke:none;stroke-width:11.63636398;stroke-miterlimit:4;stroke-dasharray:none;stroke-opacity:1"
         d="m 75.499304,104.76716 -1.139351,14.92505 -14.768513,2.35887 -47.955076,-0.14893 0.188173,-69.512388 63.811827,-0.02613 z"
         id="path3382"
         sodipodi:nodetypes="ccccccc" />
      <path
         inkscape:connector-curvature="0"
         style="opacity:0.50555558;fill:none;stroke:#8f6d00;stroke-width:5.81818199;stroke-miterlimit:4;stroke-dasharray:none;stroke-opacity:1"
         d="m 75.499304,104.76716 -1.139351,14.92505 -14.768513,2.35887 -47.955076,-0.14893 0.188173,-69.512388 63.811827,-0.02613 z"
         id="path3378"
         sodipodi:nodetypes="ccccccc" />
      <path
         inkscape:connector-curvature="0"
         sodipodi:nodetypes="ccccccc"
         id="path2407"
         d="m 75.499304,104.76716 -1.139351,14.92505 -14.768513,2.35887 -47.955076,-0.14893 0.188173,-69.512388 63.811827,-0.02613 z"
         style="opacity:0.50555558;fill:none;stroke:#e3ad00;stroke-width:2.909091;stroke-miterlimit:4;stroke-dasharray:none;stroke-opacity:1" />
      <path
         inkscape:connector-curvature="0"
         style="fill:url(#radialGradient2399)"
         d="m 75.499304,104.76716 -1.139351,14.92505 -14.768513,2.35887 -47.955076,-0.14893 0.188173,-69.512388 63.811827,-0.02613 z"
         id="path2099"
         sodipodi:nodetypes="ccccccc" />
      <rect
         style="opacity:0.86885244;fill:url(#linearGradient1970);fill-opacity:1;fill-rule:nonzero;stroke:none;stroke-width:1;stroke-linecap:butt;stroke-linejoin:miter;stroke-miterlimit:4;stroke-dasharray:none;stroke-dashoffset:4;stroke-opacity:1"
         id="rect2101"
         width="63.971756"
         height="14.911496"
         x="11.766345"
         y="52.314266"
         transform="matrix(0.9999912,0.00420424,-0.00193197,0.9999981,0,0)" />
      <rect
         transform="matrix(0.9999912,0.00420424,-0.00193197,0.9999981,0,0)"
         y="52.314266"
         x="11.766345"
         height="14.911496"
         width="63.971756"
         id="rect3384"
         style="opacity:0.86885244;fill:url(#linearGradient2396);fill-opacity:1;fill-rule:nonzero;stroke:none;stroke-width:1;stroke-linecap:butt;stroke-linejoin:miter;stroke-miterlimit:4;stroke-dasharray:none;stroke-dashoffset:4;stroke-opacity:1" />
    </g>
    <path
       style="opacity:1;fill:#525252;stroke:none;stroke-width:9.14318943;stroke-miterlimit:4;stroke-dasharray:none;stroke-opacity:1;fill-opacity:0.60392159"
       d="M 69.261719 3.4472656 A 3.8219776 3.8219776 0 0 0 66.707031 4.3574219 L 19.419922 44.632812 L 19.412109 44.638672 A 3.8219776 3.8219776 0 0 0 19.408203 44.642578 A 3.8219776 3.8219776 0 0 0 19.15625 44.871094 L 19.271484 44.755859 L 17.158203 46.541016 L 13.013672 46.541016 L 6.8730469 46.515625 A 3.8219776 3.8219776 0 0 0 3.0351562 50.330078 L 3.0039062 65.519531 A 3.8219776 3.8219776 0 0 0 3.1601562 66.597656 L 3.0039062 121.16211 A 3.8219776 3.8219776 0 0 0 6.8144531 124.99609 L 38.539062 125.08984 L 85.728516 19.392578 L 85.205078 18.830078 L 82.601562 21.433594 A 3.8219776 3.8219776 0 0 0 82.693359 16.121094 L 72.169922 4.8613281 A 3.8219776 3.8219776 0 0 0 69.451172 3.6484375 L 70.408203 3.6484375 A 3.8219776 3.8219776 0 0 0 69.261719 3.4472656 z "
       transform="matrix(0.26458333,0,0,0.26458333,0,263.13332)"
       id="path900" />
    <path
       d="m 9.3296253,296.26293 c 0.7937497,0.39688 0.618935,0.2667 1.4491967,0.68157 0.821267,-1.77747 12.91617,-29.18454 13.688753,-30.85883 -0.794279,-0.39687 -0.583141,-0.3081 -1.413404,-0.72297 -0.820737,1.77747 -12.951963,29.22648 -13.7245457,30.90023 z"
       id="path40"
       style="overflow:visible;fill:#555555;stroke-width:0.52916664"
       inkscape:connector-curvature="0"
       sodipodi:nodetypes="ccccc" />
  </g>
</svg>
